icons/reactnative-light.svg

<svg width="256" height="256" viewBox="0 0 256 256" fill="none" xmlns="http://www.w3.org/2000/svg">
<path d="M196 0H60C26.8629 0 0 26.8629 0 60V196C0 229.137 26.8629 256 60 256H196C229.137 256 256 229.137 256 196V60C256 26.8629 229.137 0 196 0Z" fill="#F4F2ED"/>
<path d="M218.004 108.397C218.004 96.4391 203.028 85.1062 180.068 78.0784C185.367 54.6766 183.012 36.0582 172.635 30.0973C170.243 28.6991 167.447 28.0368 164.393 28.0368V36.2422C166.086 36.2422 167.447 36.5733 168.588 37.1988C173.592 40.0688 175.763 50.9971 174.07 65.0528C173.666 68.5116 173.004 72.1543 172.194 75.8706C164.982 74.1045 157.108 72.7431 148.829 71.86C143.862 65.0528 138.71 58.8712 133.522 53.4624C145.517 42.3134 156.777 36.2053 164.43 36.2053V28C154.311 28 141.065 35.2119 127.672 47.7222C114.278 35.2855 101.032 28.1472 90.9134 28.1472V36.3525C98.5299 36.3525 109.826 42.4238 121.821 53.4991C116.67 58.9081 111.518 65.0528 106.624 71.86C98.3086 72.7431 90.4346 74.1045 83.2229 75.9074C82.3763 72.2279 81.751 68.6587 81.3091 65.2368C79.5805 51.181 81.714 40.2528 86.6819 37.346C87.7852 36.6837 89.2202 36.3894 90.9134 36.3894V28.184C87.8223 28.184 85.0256 28.8463 82.5976 30.2445C72.2578 36.2053 69.94 54.7869 75.2749 78.1152C52.3884 85.1799 37.4863 96.4761 37.4863 108.397C37.4863 120.356 52.462 131.689 75.4222 138.717C70.1235 162.119 72.4783 180.737 82.8551 186.698C85.247 188.096 88.0428 188.758 91.1339 188.758C101.252 188.758 114.499 181.546 127.892 169.036C141.286 181.473 154.532 188.612 164.651 188.612C167.741 188.612 170.538 187.949 172.967 186.551C183.306 180.59 185.624 162.008 180.289 138.681C203.102 131.652 218.004 120.319 218.004 108.397ZM170.097 83.8552C168.735 88.6021 167.043 93.4952 165.129 98.3891C163.621 95.446 162.038 92.5021 160.309 89.5582C158.617 86.6149 156.813 83.7449 155.01 80.9484C160.235 81.7211 165.276 82.6778 170.097 83.8552ZM153.244 123.042C150.374 128.01 147.431 132.72 144.377 137.098C138.894 137.576 133.338 137.834 127.745 137.834C122.189 137.834 116.633 137.576 111.188 137.135C108.133 132.756 105.152 128.083 102.283 123.152C99.486 118.332 96.9477 113.439 94.6291 108.508C96.9107 103.578 99.486 98.6466 102.246 93.8268C105.116 88.8597 108.059 84.1496 111.113 79.7709C116.596 79.2926 122.152 79.035 127.745 79.035C133.301 79.035 138.858 79.2926 144.303 79.7341C147.357 84.1128 150.338 88.7856 153.208 93.7165C156.004 98.5364 158.543 103.43 160.861 108.361C158.543 113.291 156.004 118.222 153.244 123.042ZM165.129 118.259C167.06 123.054 168.755 127.941 170.207 132.903C165.386 134.08 160.309 135.074 155.047 135.847C156.85 133.014 158.653 130.107 160.346 127.126C162.038 124.183 163.621 121.202 165.129 118.259ZM127.818 157.52C124.396 153.987 120.974 150.05 117.59 145.745C120.901 145.892 124.286 146.002 127.708 146.002C131.167 146.002 134.589 145.929 137.938 145.745C134.779 149.849 131.401 153.78 127.818 157.52ZM100.443 135.847C95.2182 135.074 90.177 134.117 85.3572 132.94C86.7181 128.193 88.4114 123.3 90.3243 118.406C91.8333 121.35 93.4155 124.293 95.1442 127.237C96.8736 130.18 98.6401 133.05 100.443 135.847ZM127.635 59.276C131.057 62.8083 134.479 66.7454 137.864 71.0505C134.552 70.9033 131.167 70.7929 127.745 70.7929C124.286 70.7929 120.864 70.8665 117.516 71.0505C120.675 66.9462 124.052 63.0156 127.635 59.276ZM100.406 80.9484C98.6031 83.7816 96.8004 86.6884 95.1079 89.6685C93.4155 92.6124 91.8333 95.5563 90.3243 98.4993C88.3926 93.7042 86.6981 88.8169 85.247 83.8552C90.0668 82.7146 95.1442 81.7211 100.406 80.9484ZM67.1063 127.016C54.081 121.46 45.6549 114.175 45.6549 108.397C45.6549 102.621 54.081 95.2987 67.1063 89.7795C70.2707 88.4178 73.7297 87.2036 77.2989 86.063C79.3962 93.2747 82.1558 100.781 85.5777 108.471C82.1928 116.125 79.4694 123.594 77.4092 130.77C73.7667 129.628 70.3078 128.378 67.1063 127.016ZM86.9024 179.596C81.8982 176.727 79.7269 165.798 81.4202 151.742C81.825 148.284 82.4865 144.641 83.2962 140.924C90.5086 142.691 98.3826 144.052 106.661 144.935C111.629 151.742 116.78 157.924 121.968 163.333C109.973 174.482 98.7134 180.59 91.0599 180.59C89.4045 180.553 88.0066 180.222 86.9024 179.596ZM174.181 151.559C175.91 165.614 173.776 176.542 168.808 179.449C167.705 180.112 166.27 180.406 164.577 180.406C156.96 180.406 145.664 174.335 133.669 163.259C138.821 157.85 143.972 151.706 148.866 144.898C157.182 144.015 165.056 142.654 172.267 140.851C173.114 144.567 173.776 148.137 174.181 151.559ZM188.347 127.016C185.182 128.378 181.723 129.592 178.154 130.732C176.057 123.521 173.297 116.015 169.875 108.324C173.261 100.671 175.984 93.2015 178.044 86.0261C181.687 87.1668 185.145 88.4178 188.384 89.7795C201.409 95.3349 209.835 102.621 209.835 108.397C209.798 114.175 201.372 121.497 188.347 127.016Z" fill="#61DAFB"/>
<path d="M127.708 125.213C136.996 125.213 144.524 117.685 144.524 108.397C144.524 99.1107 136.996 91.5823 127.708 91.5823C118.421 91.5823 110.893 99.1107 110.893 108.397C110.893 117.685 118.421 125.213 127.708 125.213ZM45.6834 217.711H40.1325V227.271H37V203.639H44.8231C47.4849 203.639 49.53 204.245 50.9583 205.457C52.3974 206.668 53.117 208.432 53.117 210.748C53.117 212.22 52.7166 213.502 51.9159 214.595C51.126 215.688 50.0224 216.505 48.6049 217.045L54.1557 227.076V227.271H50.8122L45.6834 217.711ZM40.1325 215.163H44.9206C46.4679 215.163 47.6959 214.762 48.6049 213.961C49.5246 213.161 49.9844 212.09 49.9844 210.748C49.9844 209.287 49.5462 208.167 48.6698 207.388C47.8041 206.609 46.549 206.214 44.9043 206.203H40.1325V215.163ZM64.3164 227.596C61.9356 227.596 59.9987 226.817 58.5055 225.258C57.0123 223.689 56.2657 221.595 56.2657 218.977V218.425C56.2657 216.683 56.5957 215.131 57.2557 213.767C57.9266 212.392 58.8572 211.321 60.0474 210.554C61.2485 209.774 62.5469 209.384 63.9428 209.384C66.2261 209.384 68.0008 210.136 69.2662 211.64C70.5325 213.144 71.1652 215.298 71.1652 218.1V219.35H59.2683C59.3116 221.082 59.8148 222.483 60.7778 223.554C61.7516 224.614 62.9851 225.145 64.4785 225.145C65.539 225.145 66.4367 224.928 67.1723 224.496C67.9087 224.063 68.5521 223.489 69.1041 222.775L70.9381 224.203C69.4662 226.464 67.2595 227.596 64.3164 227.596ZM63.9428 211.852C62.7309 211.852 61.7138 212.295 60.8914 213.182C60.0691 214.059 59.5605 215.293 59.3657 216.883H68.1629V216.656C68.0765 215.131 67.6651 213.951 66.9295 213.117C66.1932 212.274 65.1976 211.852 63.9428 211.852ZM85.4972 227.271C85.3236 226.924 85.1829 226.308 85.0751 225.42C83.6788 226.87 82.0127 227.596 80.0759 227.596C78.3448 227.596 76.9222 227.109 75.8073 226.134C74.704 225.15 74.1519 223.906 74.1519 222.402C74.1519 220.573 74.8447 219.156 76.2294 218.149C77.6248 217.132 79.5839 216.623 82.1049 216.623H85.0265V215.244C85.0265 214.194 84.7122 213.361 84.0853 212.745C83.4575 212.117 82.5319 211.803 81.3092 211.803C80.238 211.803 79.3403 212.073 78.6155 212.615C77.8906 213.155 77.5277 213.81 77.5277 214.579H74.509C74.509 213.702 74.8175 212.858 75.4338 212.046C76.0616 211.224 76.9057 210.575 77.9663 210.099C79.0375 209.623 80.2108 209.384 81.4878 209.384C83.5118 209.384 85.0965 209.893 86.2434 210.911C87.3904 211.917 87.9853 213.307 88.0289 215.081V223.164C88.0289 224.777 88.2346 226.059 88.6459 227.011V227.271H85.4972ZM80.5144 224.983C81.4557 224.983 82.3484 224.739 83.1926 224.252C84.0359 223.765 84.6472 223.132 85.0265 222.353V218.75H82.6726C78.9939 218.75 77.1542 219.826 77.1542 221.979C77.1542 222.921 77.4685 223.657 78.0955 224.187C78.7232 224.717 79.5296 224.983 80.5144 224.983ZM99.7798 225.145C100.851 225.145 101.787 224.82 102.588 224.171C103.388 223.521 103.832 222.71 103.918 221.736H106.759C106.705 222.742 106.359 223.7 105.72 224.609C105.082 225.518 104.227 226.243 103.156 226.784C102.095 227.325 100.97 227.596 99.7798 227.596C97.3888 227.596 95.4841 226.8 94.0664 225.21C92.6603 223.608 91.9568 221.422 91.9568 218.652V218.149C91.9568 216.44 92.2703 214.919 92.8981 213.589C93.5258 212.257 94.4235 211.224 95.5927 210.489C96.7717 209.752 98.1622 209.384 99.7633 209.384C101.733 209.384 103.367 209.974 104.665 211.154C105.974 212.333 106.672 213.864 106.759 215.747H103.918C103.832 214.611 103.399 213.68 102.62 212.955C101.852 212.22 100.9 211.852 99.7633 211.852C98.2379 211.852 97.0531 212.403 96.2089 213.507C95.3763 214.6 94.9591 216.185 94.9591 218.263V218.831C94.9591 220.854 95.3763 222.412 96.2089 223.505C97.0424 224.598 98.233 225.145 99.7798 225.145ZM114.209 205.457V209.709H117.488V212.03H114.209V222.921C114.209 223.624 114.355 224.154 114.647 224.511C114.939 224.858 115.437 225.031 116.141 225.031C116.486 225.031 116.963 224.966 117.568 224.836V227.271C116.778 227.487 116.011 227.596 115.264 227.596C113.923 227.596 112.91 227.189 112.228 226.378C111.547 225.567 111.207 224.414 111.207 222.921V212.03H108.008V209.709H111.207V205.457H114.209ZM147.888 227.271H144.754L132.858 209.06V227.271H129.726V203.639H132.858L144.787 221.931V203.639H147.888V227.271ZM163.794 227.271C163.62 226.924 163.479 226.308 163.371 225.42C161.975 226.87 160.309 227.596 158.372 227.596C156.641 227.596 155.218 227.109 154.104 226.134C153 225.15 152.448 223.906 152.448 222.402C152.448 220.573 153.14 219.156 154.526 218.149C155.921 217.132 157.88 216.623 160.401 216.623H163.323V215.244C163.323 214.194 163.009 213.361 162.381 212.745C161.754 212.117 160.828 211.803 159.606 211.803C158.534 211.803 157.637 212.073 156.912 212.615C156.187 213.155 155.824 213.81 155.824 214.579H152.805C152.805 213.702 153.114 212.858 153.73 212.046C154.358 211.224 155.202 210.575 156.263 210.099C157.334 209.623 158.507 209.384 159.784 209.384C161.807 209.384 163.393 209.893 164.54 210.911C165.687 211.917 166.282 213.307 166.325 215.081V223.164C166.325 224.777 166.531 226.059 166.942 227.011V227.271H163.794ZM158.811 224.983C159.752 224.983 160.645 224.739 161.489 224.252C162.332 223.765 162.944 223.132 163.323 222.353V218.75H160.969C157.29 218.75 155.451 219.826 155.451 221.979C155.451 222.921 155.765 223.657 156.392 224.187C157.02 224.717 157.826 224.983 158.811 224.983ZM175.106 205.457V209.709H178.385V212.03H175.106V222.921C175.106 223.624 175.252 224.154 175.544 224.511C175.837 224.858 176.334 225.031 177.038 225.031C177.383 225.031 177.86 224.966 178.466 224.836V227.271C177.675 227.487 176.908 227.596 176.161 227.596C174.82 227.596 173.808 227.189 173.126 226.378C172.444 225.567 172.104 224.414 172.104 222.921V212.03H168.906V209.709H172.104V205.457H175.106ZM185.169 227.271H182.166V209.709H185.169V227.271ZM181.923 205.051C181.923 204.565 182.069 204.153 182.361 203.817C182.664 203.482 183.107 203.315 183.692 203.315C184.277 203.315 184.72 203.482 185.023 203.817C185.326 204.153 185.477 204.565 185.477 205.051C185.477 205.538 185.326 205.943 185.023 206.268C184.72 206.593 184.277 206.756 183.692 206.756C183.107 206.756 182.664 206.593 182.361 206.268C182.069 205.943 181.923 205.538 181.923 205.051ZM195.784 223.197L200.133 209.709H203.201L196.904 227.271H194.615L188.253 209.709H191.32L195.784 223.197ZM213.15 227.596C210.77 227.596 208.833 226.817 207.34 225.258C205.847 223.689 205.1 221.595 205.1 218.977V218.425C205.1 216.683 205.43 215.131 206.09 213.767C206.761 212.392 207.691 211.321 208.882 210.554C210.083 209.774 211.381 209.384 212.777 209.384C215.06 209.384 216.835 210.136 218.101 211.64C219.366 213.144 220 215.298 220 218.1V219.35H208.103C208.146 221.082 208.649 222.483 209.612 223.554C210.586 224.614 211.82 225.145 213.312 225.145C214.373 225.145 215.272 224.928 216.007 224.496C216.743 224.063 217.387 223.489 217.939 222.775L219.773 224.203C218.301 226.464 216.093 227.596 213.15 227.596ZM212.777 211.852C211.566 211.852 210.548 212.295 209.726 213.182C208.903 214.059 208.395 215.293 208.201 216.883H216.997V216.656C216.91 215.131 216.499 213.951 215.764 213.117C215.028 212.274 214.032 211.852 212.777 211.852Z" fill="#61DAFB"/>
</svg>

<svg xmlns="http://www.w3.org/2000/svg" width="256" height="256" fill="none"><path fill="#F4F2ED" d="M196 0H60C26.863 0 0 26.863 0 60v136c0 33.137 26.863 60 60 60h136c33.137 0 60-26.863 60-60V60c0-33.137-26.863-60-60-60"/><path fill="#61DAFB" d="M218.004 108.397c0-11.958-14.976-23.29-37.936-30.319 5.299-23.401 2.944-42.02-7.433-47.98-2.392-1.399-5.188-2.061-8.242-2.061v8.205c1.693 0 3.054.331 4.195.957 5.004 2.87 7.175 13.798 5.482 27.854-.404 3.459-1.066 7.101-1.876 10.818-7.212-1.766-15.086-3.128-23.365-4.011-4.967-6.807-10.119-12.989-15.307-18.398 11.995-11.149 23.255-17.257 30.908-17.257V28c-10.119 0-23.365 7.212-36.758 19.722-13.394-12.437-26.64-19.575-36.759-19.575v8.206c7.617 0 18.913 6.07 30.908 17.146a174 174 0 0 0-15.197 18.361c-8.315.883-16.19 2.245-23.401 4.047a111 111 0 0 1-1.914-10.67c-1.728-14.056.405-24.984 5.373-27.891 1.103-.662 2.538-.957 4.231-.957v-8.205c-3.09 0-5.887.662-8.315 2.06-10.34 5.961-12.658 24.543-7.323 47.871-22.887 7.065-37.789 18.361-37.789 30.282 0 11.959 14.976 23.292 37.936 30.32-5.298 23.402-2.944 42.02 7.433 47.981 2.392 1.398 5.188 2.06 8.279 2.06 10.118 0 23.365-7.212 36.758-19.722 13.394 12.437 26.64 19.576 36.759 19.576 3.09 0 5.887-.663 8.316-2.061 10.339-5.961 12.657-24.543 7.322-47.87 22.813-7.029 37.715-18.362 37.715-30.284m-47.907-24.542c-1.362 4.747-3.054 9.64-4.968 14.534-1.508-2.943-3.091-5.887-4.82-8.83-1.692-2.944-3.496-5.814-5.299-8.61 5.225.772 10.266 1.729 15.087 2.906m-16.853 39.187c-2.87 4.968-5.813 9.678-8.867 14.056-5.483.478-11.039.736-16.632.736-5.556 0-11.112-.258-16.557-.699a202 202 0 0 1-8.905-13.983 192 192 0 0 1-7.654-14.644c2.282-4.93 4.857-9.861 7.617-14.681 2.87-4.967 5.813-9.677 8.867-14.056a192 192 0 0 1 16.632-.736c5.556 0 11.113.258 16.558.7a203 203 0 0 1 8.905 13.981 192 192 0 0 1 7.653 14.645 206 206 0 0 1-7.617 14.681m11.885-4.783a158 158 0 0 1 5.078 14.644 165 165 0 0 1-15.16 2.944c1.803-2.833 3.606-5.74 5.299-8.721 1.692-2.943 3.275-5.924 4.783-8.867m-37.311 39.261c-3.422-3.533-6.844-7.47-10.228-11.775 3.311.147 6.696.257 10.118.257 3.459 0 6.881-.073 10.23-.257a144 144 0 0 1-10.12 11.775m-27.375-21.673c-5.225-.773-10.266-1.73-15.086-2.907 1.361-4.747 3.054-9.64 4.967-14.534 1.51 2.944 3.091 5.887 4.82 8.831a245 245 0 0 0 5.299 8.61m27.192-76.571c3.422 3.532 6.844 7.47 10.229 11.774-3.312-.147-6.697-.257-10.119-.257-3.459 0-6.881.073-10.229.257a144 144 0 0 1 10.119-11.774m-27.229 21.672c-1.803 2.834-3.606 5.74-5.298 8.72a209 209 0 0 0-4.784 8.831 158 158 0 0 1-5.077-14.644 179 179 0 0 1 15.159-2.907m-33.3 46.068c-13.025-5.556-21.451-12.841-21.451-18.619 0-5.776 8.426-13.098 21.451-18.618 3.165-1.361 6.624-2.575 10.193-3.716 2.097 7.212 4.857 14.718 8.279 22.408-3.385 7.654-6.109 15.123-8.169 22.299-3.642-1.142-7.101-2.392-10.303-3.754m19.796 52.58c-5.004-2.869-7.175-13.798-5.482-27.854.405-3.458 1.067-7.101 1.876-10.818 7.213 1.767 15.087 3.128 23.365 4.011 4.968 6.807 10.119 12.989 15.307 18.398-11.995 11.149-23.255 17.257-30.908 17.257-1.656-.037-3.053-.368-4.158-.994m87.279-28.037c1.729 14.055-.405 24.983-5.373 27.89-1.103.663-2.538.957-4.231.957-7.617 0-18.913-6.071-30.908-17.147a174 174 0 0 0 15.197-18.361c8.316-.883 16.19-2.244 23.401-4.047.847 3.716 1.509 7.286 1.914 10.708m14.166-24.543c-3.165 1.362-6.624 2.576-10.193 3.716-2.097-7.211-4.857-14.717-8.279-22.408 3.386-7.653 6.109-15.123 8.169-22.298a116 116 0 0 1 10.34 3.754c13.025 5.555 21.451 12.841 21.451 18.617-.037 5.778-8.463 13.1-21.488 18.619"/><path fill="#61DAFB" d="M127.708 125.213c9.288 0 16.816-7.528 16.816-16.816 0-9.286-7.528-16.815-16.816-16.815s-16.815 7.529-16.815 16.815c0 9.288 7.528 16.816 16.815 16.816m-82.025 92.498h-5.55v9.56H37v-23.632h7.823q3.993 0 6.135 1.818 2.16 1.817 2.159 5.291 0 2.208-1.201 3.847-1.185 1.64-3.311 2.45l5.55 10.031v.195h-3.343zm-5.55-2.548h4.788q2.32 0 3.684-1.202 1.38-1.2 1.38-3.213 0-2.192-1.315-3.36-1.299-1.168-3.766-1.185h-4.772zm24.183 12.433q-3.57 0-5.81-2.338-2.24-2.354-2.24-6.281v-.552q0-2.613.99-4.658 1.006-2.062 2.791-3.213 1.802-1.17 3.896-1.17 3.425 0 5.323 2.256 1.9 2.256 1.9 6.46v1.25H59.267q.066 2.598 1.51 4.204 1.46 1.59 3.7 1.591 1.591 0 2.694-.649a6.8 6.8 0 0 0 1.932-1.721l1.834 1.428q-2.207 3.392-6.622 3.393m-.373-15.744q-1.819 0-3.052 1.33-1.233 1.316-1.525 3.701h8.797v-.227q-.13-2.288-1.233-3.539-1.105-1.265-2.987-1.265m21.554 15.419q-.26-.52-.422-1.851-2.094 2.175-5 2.176-2.595 0-4.268-1.462-1.655-1.476-1.655-3.732 0-2.743 2.077-4.253 2.094-1.526 5.876-1.526h2.921v-1.379q0-1.575-.94-2.499-.943-.942-2.777-.942-1.607 0-2.693.812-1.088.81-1.088 1.964h-3.019q0-1.315.925-2.533.942-1.233 2.532-1.947 1.607-.715 3.522-.715 3.036 0 4.755 1.527 1.72 1.509 1.786 4.17v8.083q0 2.42.617 3.847v.26zm-4.983-2.288q1.412 0 2.679-.731 1.264-.73 1.834-1.899v-3.603h-2.354q-5.52 0-5.519 3.229 0 1.413.942 2.208.941.796 2.418.796m19.266.162q1.607 0 2.808-.974 1.2-.975 1.33-2.435h2.841q-.08 1.51-1.039 2.873-.957 1.363-2.564 2.175a7.3 7.3 0 0 1-3.376.812q-3.587 0-5.714-2.386-2.11-2.403-2.11-6.558v-.503q0-2.564.942-4.56.942-1.998 2.695-3.1 1.77-1.105 4.17-1.105 2.955 0 4.902 1.77 1.963 1.769 2.094 4.593h-2.841q-.13-1.704-1.298-2.792-1.152-1.103-2.857-1.103-2.288 0-3.554 1.655-1.25 1.64-1.25 4.756v.568q0 3.034 1.25 4.674t3.57 1.64m14.429-19.688v4.252h3.279v2.321h-3.279v10.891q0 1.055.438 1.59.438.52 1.494.52.519 0 1.427-.195v2.435a8.7 8.7 0 0 1-2.304.325q-2.012 0-3.036-1.218-1.021-1.217-1.021-3.457V212.03h-3.199v-2.321h3.199v-4.252zm33.679 21.814h-3.134l-11.896-18.211v18.211h-3.132v-23.632h3.132l11.929 18.292v-18.292h3.101zm15.906 0q-.261-.52-.423-1.851-2.094 2.175-4.999 2.176-2.597 0-4.268-1.462-1.656-1.476-1.656-3.732 0-2.743 2.078-4.253 2.093-1.526 5.875-1.526h2.922v-1.379q0-1.575-.942-2.499-.941-.942-2.775-.942-1.607 0-2.694.812-1.088.81-1.088 1.964h-3.019q0-1.315.925-2.533.942-1.233 2.533-1.947 1.606-.715 3.521-.715 3.035 0 4.756 1.527 1.72 1.509 1.785 4.17v8.083q0 2.42.617 3.847v.26zm-4.983-2.288q1.412 0 2.678-.731 1.265-.73 1.834-1.899v-3.603h-2.354q-5.518 0-5.518 3.229 0 1.413.941 2.208.942.796 2.419.796m16.295-19.526v4.252h3.279v2.321h-3.279v10.891q0 1.055.438 1.59.439.52 1.494.52.518 0 1.428-.195v2.435a8.7 8.7 0 0 1-2.305.325q-2.012 0-3.035-1.218-1.022-1.217-1.022-3.457V212.03h-3.198v-2.321h3.198v-4.252zm10.063 21.814h-3.003v-17.562h3.003zm-3.246-22.22q0-.73.438-1.234.454-.502 1.331-.502t1.331.502q.454.504.454 1.234t-.454 1.217-1.331.488-1.331-.488q-.438-.487-.438-1.217m13.861 18.146 4.349-13.488h3.068l-6.297 17.562h-2.289l-6.362-17.562h3.067zm17.366 4.399q-3.57 0-5.81-2.338-2.24-2.354-2.24-6.281v-.552q0-2.613.99-4.658 1.006-2.062 2.792-3.213 1.801-1.17 3.895-1.17 3.425 0 5.324 2.256 1.898 2.256 1.899 6.46v1.25h-11.897q.065 2.598 1.509 4.204 1.462 1.59 3.7 1.591 1.592 0 2.695-.649a6.8 6.8 0 0 0 1.932-1.721l1.834 1.428q-2.208 3.392-6.623 3.393m-.373-15.744q-1.817 0-3.051 1.33-1.234 1.316-1.525 3.701h8.796v-.227q-.13-2.288-1.233-3.539-1.104-1.265-2.987-1.265"/></svg>
